X: 2
T:King of the Fairies
M:4/4
L:1/8
C:anon.
R:Set Dance
O:Ireland
N:off an old xeroxed sheet: the same as what everybody round
N:here plays, except that whether you repeat the second part
N:is a matter of contention.
Z:Transcribed by Jack Campin
K:Emin
B,2|EDEF GFGA|B2B2 G3 A|B2E2     EFGE    |FGFE D3B,    |
    EDEF GFGA|BAGB d3 c|B2E2     GFED    |E6          :|
K:Edor
zd|e2 e2 Bdef|gagf e3 f|e2   B2  BABc    |dedc Bc (3dcB|
   e2 B2 Bdef|gagf e3 f|gf (3efg fe (3def|e2ed e3f     |
   g2 ze f2zd|edBc d3 e|dBAF     GABc    |dBAF GFED    |
   B,2E2 EFGA|B2e2 edef|e2B2     BAGF    |E6          :|
W:
W:
W:  From Musica Viva - http://www.musicaviva.com
W:  the Internet center for free sheet music downloads.
